dist/svg/u1F5A5.svg

<?xml version="1.0" encoding="UTF-8"?><svg id="a" xmlns="http://www.w3.org/2000/svg" viewBox="0 0 40 40"><rect x=".062" y=".062" width="40" height="40" fill="none"/><g><g><path d="M4.66,5.431c-.883,0-1.598,.716-1.598,1.598V28.931c0,.883,.716,1.598,1.598,1.598h.931L30.689,5.431H4.66Z" fill="#333d4b"/><path d="M35.463,5.431h-4.774L5.591,30.529h29.872c.883,0,1.598-.715,1.598-1.598V7.03c0-.883-.715-1.598-1.598-1.598Z" fill="#333d4b"/></g><path d="M24.844,30.922v-1.669H15.28v1.669c0,1.628-.83,3.144-2.202,4.021l-1.181,.755c-.454,.291-.249,.995,.291,.995h15.748c.539,0,.745-.704,.291-.995l-1.181-.755c-1.372-.877-2.202-2.393-2.202-4.021Z" fill="#8a94a0"/><rect x="11.647" y="35.518" width="16.83" height="1.174" rx=".587" ry=".587" fill="#afb7c0"/><path d="M4.66,30.529h30.803c.883,0,1.598-.716,1.598-1.598v-2.738H3.062v2.738c0,.883,.715,1.598,1.598,1.598Z" fill="#afb7c0"/></g></svg>

<svg id="Layer_1" data-name="Layer 1" xmlns="http://www.w3.org/2000/svg" viewBox="0 0 40 40"><defs><style>.cls-1{fill:none;}.cls-2{fill:#333d4b;}.cls-3{fill:#8a94a0;}.cls-4{fill:#afb7c0;}</style></defs><rect class="cls-1" x="0.062" y="0.062" width="40" height="40"/><path class="cls-2" d="M4.66,5.431a1.6,1.6,0,0,0-1.6,1.6v21.9a1.6,1.6,0,0,0,1.6,1.6h.931l25.1-25.1Z"/><path class="cls-2" d="M35.463,5.431H30.689l-25.1,25.1H35.463a1.6,1.6,0,0,0,1.6-1.6V7.03A1.6,1.6,0,0,0,35.463,5.431Z"/><path class="cls-3" d="M24.844,30.922V29.253H15.28v1.669a4.775,4.775,0,0,1-2.2,4.021L11.9,35.7a.54.54,0,0,0,.29.995H27.936a.54.54,0,0,0,.291-.995l-1.181-.754A4.772,4.772,0,0,1,24.844,30.922Z"/><rect class="cls-4" x="11.647" y="35.518" width="16.83" height="1.174" rx="0.587"/><path class="cls-4" d="M4.66,30.529h30.8a1.6,1.6,0,0,0,1.6-1.6V26.194h-34v2.737A1.6,1.6,0,0,0,4.66,30.529Z"/></svg>
